public/we-upbig.svg

<svg width="380" height="400" viewBox="0 0 380 400" fill="none" xmlns="http://www.w3.org/2000/svg">
<g clip-path="url(#clip0_11917_52331)">
<rect width="380" height="400" rx="18" fill="#2FD566" fill-opacity="0.2"/>
<path d="M344.812 201.601H370.576L288.615 73.3333H241.434L243.952 192.322V394.824L344.642 409.004L344.812 201.601Z" fill="#52B46D"/>
<path d="M344.811 201.601H297.628L297.18 320.348L297.473 413.498L344.642 409.004L344.811 201.601Z" fill="#3E8452"/>
<path d="M297.628 201.601H323.392L241.433 73.3333L173.375 191.776L196.77 192.322V415.993L297.473 434.667L297.628 201.601Z" fill="#51D776"/>
<path d="M117.562 428C176.588 428 224.438 367.409 224.438 292.667C224.438 217.924 176.588 157.333 117.562 157.333C58.5371 157.333 10.6875 217.924 10.6875 292.667C10.6875 367.409 58.5371 428 117.562 428Z" fill="#075430"/>
<path d="M137.75 428C196.775 428 244.625 367.409 244.625 292.667C244.625 217.924 196.775 157.333 137.75 157.333C78.7246 157.333 30.875 217.924 30.875 292.667C30.875 367.409 78.7246 428 137.75 428Z" fill="#38C266"/>
<path d="M78.0861 273.574L144.266 170H161.914L95.7341 273.574H78.0861ZM85.4869 224.131C80.6479 224.131 76.568 222.995 73.2472 220.721C69.9263 218.353 67.3645 215.133 65.5618 211.06C63.8539 206.987 63 202.299 63 196.995C63 191.501 63.9488 186.765 65.8464 182.787C67.7441 178.809 70.4007 175.778 73.8165 173.694C77.3271 171.515 81.407 170.426 86.0562 170.426C90.8951 170.426 94.975 171.61 98.2959 173.978C101.617 176.251 104.131 179.424 105.839 183.497C107.547 187.57 108.401 192.211 108.401 197.421C108.401 203.104 107.452 207.934 105.554 211.913C103.657 215.891 100.953 218.922 97.4419 221.005C94.0262 223.089 90.0412 224.131 85.4869 224.131ZM85.6292 209.639C86.4831 209.639 87.3371 209.497 88.191 209.213C89.0449 208.929 89.7091 207.934 90.1835 206.23C90.7528 204.43 91.0375 201.446 91.0375 197.279C91.0375 193.111 90.7528 190.175 90.1835 188.47C89.7091 186.765 89.0449 185.77 88.191 185.486C87.3371 185.202 86.4831 185.06 85.6292 185.06C84.8702 185.06 84.0637 185.202 83.2097 185.486C82.4507 185.77 81.7865 186.765 81.2172 188.47C80.6479 190.08 80.3633 193.016 80.3633 197.279C80.3633 200.404 80.5056 202.82 80.7903 204.525C81.1698 206.23 81.5968 207.461 82.0712 208.219C82.6404 208.882 83.2097 209.308 83.779 209.497C84.4432 209.592 85.0599 209.639 85.6292 209.639ZM154.086 274C149.247 274 145.167 272.816 141.846 270.448C138.526 268.08 135.964 264.86 134.161 260.787C132.453 256.714 131.599 252.073 131.599 246.863C131.599 241.275 132.548 236.492 134.446 232.514C136.438 228.536 139.142 225.505 142.558 223.421C146.069 221.242 150.101 220.153 154.655 220.153C159.494 220.153 163.574 221.337 166.895 223.705C170.216 225.978 172.73 229.151 174.438 233.224C176.146 237.297 177 241.938 177 247.148C177 252.831 176.051 257.709 174.154 261.781C172.256 265.76 169.599 268.791 166.184 270.874C162.768 272.958 158.735 274 154.086 274ZM154.371 259.366C155.225 259.366 156.031 259.224 156.79 258.94C157.644 258.656 158.308 257.661 158.783 255.956C159.352 254.157 159.637 251.173 159.637 247.005C159.637 242.838 159.352 239.902 158.783 238.197C158.308 236.492 157.644 235.497 156.79 235.213C156.031 234.929 155.225 234.787 154.371 234.787C153.612 234.787 152.805 234.929 151.951 235.213C151.097 235.497 150.386 236.492 149.816 238.197C149.247 239.807 148.963 242.743 148.963 247.005C148.963 251.173 149.247 254.157 149.816 255.956C150.386 257.661 151.097 258.656 151.951 258.94C152.805 259.224 153.612 259.366 154.371 259.366Z" fill="white"/>
<path d="M231.562 334.371L255.991 326.866L283.196 331.79L258.769 338.129L231.562 334.371Z" fill="#D7F7F6"/>
<path d="M231.562 334.37L258.769 338.129V405.145L231.562 400.2V334.37Z" fill="#DCEEED"/>
<path d="M258.77 298.374L285.974 302.132V410.092L258.77 405.145V298.374Z" fill="#C2E1DC"/>
<path d="M285.973 334.37L313.178 338.129V414.961L285.973 410.013V334.37Z" fill="#DCEEED"/>
<path d="M337.606 331.79L313.179 338.129V414.961L337.606 407.458V331.79Z" fill="#63A099"/>
<path d="M285.973 334.371L310.4 326.866L337.605 331.79L313.178 338.129L285.973 334.371Z" fill="#D7F7F6"/>
<path d="M310.4 295.793L285.973 302.132V334.37L310.4 326.865V295.793Z" fill="#63A099"/>
<path d="M258.77 298.374L284.584 292.171L310.401 295.793L285.974 302.132L258.77 298.374Z" fill="#D7F7F6"/>
</g>
<defs>
<clipPath id="clip0_11917_52331">
<rect width="380" height="400" rx="18" fill="white"/>
</clipPath>
</defs>
</svg>

<svg xmlns="http://www.w3.org/2000/svg" width="380" height="400" fill="none" viewBox="0 0 380 400"><g clip-path="url(#a)"><rect width="380" height="400" fill="#2fd566" fill-opacity=".2" rx="18"/><path fill="#52b46d" d="M344.812 201.601h25.764L288.615 73.333h-47.181l2.518 118.989v202.502l100.69 14.18z"/><path fill="#3e8452" d="M344.811 201.601h-47.183l-.448 118.747.293 93.15 47.169-4.494z"/><path fill="#51d776" d="M297.628 201.601h25.764L241.433 73.333l-68.058 118.443 23.395.546v223.671l100.703 18.674z"/><path fill="#075430" d="M117.562 428c59.026 0 106.876-60.591 106.876-135.333 0-74.743-47.85-135.334-106.876-135.334-59.025 0-106.874 60.591-106.874 135.334S58.538 428 117.562 428"/><path fill="#38c266" d="M137.75 428c59.025 0 106.875-60.591 106.875-135.333 0-74.743-47.85-135.334-106.875-135.334S30.875 217.924 30.875 292.667 78.725 428 137.75 428"/><path fill="#fff" d="M78.086 273.574 144.266 170h17.648l-66.18 103.574zm7.4-49.443q-7.257 0-12.239-3.41-4.98-3.552-7.685-9.661Q63 204.95 63 196.995q0-8.241 2.846-14.208t7.97-9.093q5.266-3.268 12.24-3.268 7.26 0 12.24 3.552 4.981 3.41 7.543 9.519 2.562 6.11 2.562 13.924 0 8.524-2.847 14.492-2.845 5.967-8.112 9.092-5.123 3.126-11.955 3.126m.143-14.492q1.281 0 2.562-.426t1.992-2.983q.854-2.7.854-8.951t-.854-8.809q-.711-2.558-1.992-2.984a8.1 8.1 0 0 0-2.562-.426q-1.138 0-2.42.426-1.137.426-1.992 2.984-.854 2.415-.854 8.809 0 4.688.427 7.246.57 2.557 1.281 3.694.855.995 1.708 1.278.996.142 1.85.142M154.086 274q-7.259 0-12.24-3.552t-7.685-9.661q-2.562-6.11-2.562-13.924 0-8.382 2.847-14.349 2.988-5.967 8.112-9.093 5.266-3.268 12.097-3.268 7.258 0 12.24 3.552 4.981 3.41 7.543 9.519 2.562 6.11 2.562 13.924 0 8.525-2.846 14.633-2.847 5.969-7.97 9.093Q161.06 274 154.086 274m.285-14.634q1.28 0 2.419-.426 1.28-.426 1.993-2.984.854-2.699.854-8.951 0-6.25-.854-8.808-.712-2.558-1.993-2.984a6.8 6.8 0 0 0-2.419-.426q-1.139 0-2.42.426t-2.135 2.984q-.853 2.415-.853 8.808 0 6.252.853 8.951.855 2.558 2.135 2.984 1.281.426 2.42.426"/><path fill="#d7f7f6" d="m231.562 334.371 24.429-7.505 27.205 4.924-24.427 6.339z"/><path fill="#dceeed" d="m231.562 334.37 27.207 3.759v67.016l-27.207-4.945z"/><path fill="#c2e1dc" d="m258.77 298.374 27.204 3.758v107.96l-27.204-4.947z"/><path fill="#dceeed" d="m285.973 334.37 27.205 3.759v76.832l-27.205-4.948z"/><path fill="#63a099" d="m337.606 331.79-24.427 6.339v76.832l24.427-7.503z"/><path fill="#d7f7f6" d="m285.973 334.371 24.427-7.505 27.205 4.924-24.427 6.339z"/><path fill="#63a099" d="m310.4 295.793-24.427 6.339v32.238l24.427-7.505z"/><path fill="#d7f7f6" d="m258.77 298.374 25.814-6.203 25.817 3.622-24.427 6.339z"/></g><defs><clipPath id="a"><rect width="380" height="400" fill="#fff" rx="18"/></clipPath></defs></svg>
